X: 99
T: Cantantibus organis – Maestoso
C: Franciszek Walczyński
%%abc-version 2.0
%%abcx-abcm2ps-target-version 5.9.1 (29 Sep 2008)
%%abc-creator hum2abc beta
%%abcx-conversion-date 2021/10/04 07:38:42
%%abc-edited-by Andrzej Gręziak
%%abcx-initial-encoding-date 2021-07-27
%%humdrum-veritas 3109951674
%%humdrum-veritas-data 3470424815
%%linebreak <none>
%%barnumbers 0
L: 1/4
M: C
N: Derived from pl-kozmzk--mzk-m-33_szymanowska-maria--le-depart-romance.krn
%%staves {1 2}
V: 1 clef=treble
V: 2 clef=bass
K: C
[V:1] CDCD & G,_A,G,B, | 
[V:2] E,F,E,F, & C,4- | 
[V:1] E4 & C2D2 | 
[V:2] G,2^G,2 & C,2B,,2 | 
[V:1] EFE^F & C4 | 
[V:2] A,4 & A,,D,A,,D, | 
[V:1] G4 & D4 | 
[V:2] C2B,2 & G,3F, | 
[V:1] G^GAB & G=FE2 | 
[V:2] CB,A,^G, & E,D,C,B,, | 
[V:1] c^cd=c & E2A2 | 
[V:2] A,2D_E & A,,G,,F,,^F,, | 
[V:1] B4 & GAGF | 
[V:2] D=F=ED & G,,4 | 
[V:1] !fermata!c4 & G4 | 
[V:2] FE/D/!fermata!E2 & !fermata!C,4 | 
[V:1] cd/c/fc- & E2F2 | 
[V:2] C4- & _B,2A,2 | 
[V:1] c_BA2 & E2F2 | 
[V:2] C4 & G,2F,2 | 
[V:1] A_B/A/dA & G2F2 | 
[V:2] ^C2A,2- & E,2D,2 | 
[V:1] AGF2 & E2D2 | 
[V:2] A,4 & ^C,2D,2 | 
[V:1] GA/=B/ed & F4 | 
[V:2] B,C/D/B,2 & G,2G,^G, | 
[V:1] cd/^d/e2 & EA^G2 | 
[V:2] CA,B,2 & A,F,E,2 | 
[V:1] f2dc & =G3A- | 
[V:2] B,2D_E & D,2F,^F, | 
[V:1] c2B2 & A2GF | 
[V:2] D4 & G,4 | 
[V:1] [EGc][F_Ad][EGc][FBd] | 
[V:2] C4 & C,4 | 
[V:1] [G4c4e4] | 
[V:2] [C,C]!accent![B,,B,]!accent![_B,,2_B,2] | 
[V:1] [F2c2f2][Gce][FBd] | 
[V:2] !accent![A,,A,]!accent![_A,,_A,]!accent![G,,G,]!accent![^G,,^G,] | 
[V:1] c^cdc & [E2A2-][D2A2] | 
[V:2] !accent![A,,A,]!accent![=G,,=G,]!accent![F,,F,]!accent![^F,,^F,] | 
[V:1] B2c_B & [D2G2-][C2G2] | 
[V:2] !accent![G,,G,]!accent![=F,,=F,]!accent![E,,E,]!accent![C,,C,] | 
[V:1] [CFA]!accent![FAd]!accent![_Beg]!accent![Adf] | 
[V:2] !accent![F,,F,]!accent![D,,D,]!accent![^C,,^C,]!accent![D,,/D,/]!accent![F,,/F,/] | 
[V:1] [c2e2][=B2d2] & G3F | 
[V:2] [G,,4G,4] | 
[V:1] [E4G4c4] | 
[V:2] [C,,4C,4] | 
[V:1] CDCD | 
[V:2] [E,G,][F,_A,][E,G,][F,/=A,/]B,/ & [C,,4C,4]- | 
[V:1] !fermata!E4 |]  
[V:2] [G,4C4] & !fermata![C,,4C,4] |]  


